X: 2
T: The Fergus Cil Band
C: John Joe Casey
L: 1/8
M: 4/4
R: reel
K: Dmaj
|: fdcd edcA | BG D/E/F GBAG | FDAF G3 B |[1 Adce g2  b/a/g :|[2 Adag fd-de ||
|: fd d/d/d fd f/g/a | ge e/e/e gebg | fdAF G3 A |[1 FAdf g2 b/a/g :|[2 FAag fd- d2 |]
